X:17546
T:Tom Billy's #1
M:6/8
L:1/8
R:Jig
K:D maj
|:~a3ece|edB BAA|eaa ece|dcB Ace|~a3 ece|
edB BAB|GBd gfe|fdB Ace:|:~g3~a3|bag fed|
|f/2g/2af g2e|gdB def|gfg aga|bge egb|1age dBA|
|ABA Ace:|2age dBe|A/2c/2BA a/2g/2ed|:c3 edd|
|edB dBA|ABA dBA|A/2c/2BA a/2g/2ed|c3 edd|
|ede gab|age dBe|1A/2B/2ce a/2g/2ed:|2A/2c/2BA Ace|
